X:1
T:We're Going to Pump Out Old Lake Erie
M:6/8
L:1/8
K:G
 D| GAB d2 B| A G2 B2 D| GAB d2 B| c3- c2 D| FFF FED| F2 F FFE| D2 c B2 A|\
 G3 B2 G| GAB ddB| A G2- G2 D| GAB d2 B| c3- c2 D| FFF FED| FFF FFE|\
 D2 c B2 A| G2 B, C/2C/2 D2| EB,D E2 B,| DDG A B2| GAB ABA| B2 A2 G3/2 G/2|\
 E2 D2 B,C| DD D2 D G2| A B2 BA B2| GAB Bdd| dBG A B2| A2 G3- G2|||\
